icons/ngrx-effects-files.svg

<!--
  - The MIT License (MIT)
  -
  - Copyright (c) 2015-2024 Elior "Mallowigi" Boukhobza
  -
  - Permission is hereby granted, free of charge, to any person obtaining a copy
  - of this software and associated documentation files (the "Software"), to deal
  - in the Software without restriction, including without limitation the rights
  - to use, copy, modify, merge, publish, distribute, sublicense, and/or sell
  - copies of the Software, and to permit persons to whom the Software is
  - furnished to do so, subject to the following conditions:
  -
  - The above copyright notice and this permission notice shall be included in all
  - copies or substantial portions of the Software.
  -
  - THE SOFTWARE IS PROVIDED "AS IS", WITHOUT WARRANTY OF ANY KIND, EXPRESS OR
  - IMPLIED, INCLUDING BUT NOT LIMITED TO THE WARRANTIES OF MERCHANTABILITY,
  - FITNESS FOR A PARTICULAR PURPOSE AND NONINFRINGEMENT. IN NO EVENT SHALL THE
  - AUTHORS OR COPYRIGHT HOLDERS BE LIABLE FOR ANY CLAIM, DAMAGES OR OTHER
  - LIABILITY, WHETHER IN AN ACTION OF CONTRACT, TORT OR OTHERWISE, ARISING FROM,
  - OUT OF OR IN CONNECTION WITH THE SOFTWARE OR THE USE OR OTHER DEALINGS IN THE
  - SOFTWARE.
  -
  -->

<svg viewBox="0 0 24 24" xmlns="http://www.w3.org/2000/svg" width="16px" height="16px">
  <path fill="#9575CD" data-iconColor="NgRx Effects Files"
        d="M 7.401726,2.3422378 C 5.1778223,3.3264335 3.7866995,4.9257515 3.0012356,6.0897522 2.1495278,7.3578505 1.8183081,8.4082905 1.8183081,8.4177535 v 0.01893 c -0.2460489,0.700293 -0.473171,1.7980495 -0.473171,1.8075135 -0.2649758,1.343805 -0.1419513,2.592977 -0.1419513,2.611904 0.00946,0.08517 0.018927,0.170341 0.02839,0.246049 0.02839,-0.33122 0.066244,-0.671903 0.1324879,-1.012586 0.018927,-0.132488 0.3690734,-2.015709 1.6939522,-3.5109295 0.1419513,-0.217658 1.6750254,-2.2333668 4.4951247,-2.2333668 0.6056589,0 1.239708,0.094634 1.8737572,0.2839026 h 0.018927 c 0.037854,0.00946 0.8706352,0.3122929 1.1734642,0.4637076 0.283903,0.1419513 0.785464,0.3596099 0.794927,0.3596099 h 0.01893 c 2.716002,1.3248787 5.06293,1.7507327 5.081857,1.7601967 0.671903,0.113561 1.277562,0.170341 1.816977,0.170341 1.078829,0 1.85483,-0.236585 2.261757,-0.69083 C 20.924954,8.3231195 20.8871,7.9161923 20.8871,7.9161923 V 7.8783387 C 20.906027,6.894143 20.101636,5.8342399 19.42027,5.1244834 18.663196,4.3295561 17.887196,3.7806777 17.877732,3.7806777 15.833634,2.2665305 13.647583,1.4999934 11.357436,1.4999934 9.0105075,1.5094568 7.4206529,2.3327744 7.401726,2.3422378 Z m 7.419322,2.6592211 c 0.283902,0 0.511024,0.2271221 0.511024,0.5110247 0,0.2839026 -0.227122,0.5110247 -0.511024,0.5110247 -0.283903,0 -0.511025,-0.2271221 -0.511025,-0.5110247 0,-0.2839026 0.227122,-0.5110247 0.511025,-0.5110247 z M 8.2155802,3.0614578 c 0.075707,0 0.1230244,0.018927 0.1419513,0.018927 L 11.584558,4.0835071 11.461533,4.3390195 9.9189959,3.8563851 8.2818241,3.3453604 c -0.00946,0 -0.00946,0 -0.018927,-0.00946 -0.00946,0 -0.02839,-0.00946 -0.047317,-0.00946 -0.018927,0 -0.047317,0 -0.066244,0.00946 -0.293366,0.075707 -1.0977567,0.35961 -1.3343422,0.7854639 -0.066244,0.1230245 -0.075707,0.2460489 -0.037854,0.3785368 0,0.00946 0.1703416,0.539415 0.5961955,1.0882934 L 9.5120688,5.4840933 10.941045,5.4178494 10.799094,5.7112154 7.2503113,5.881557 C 6.7203598,5.2380444 6.5121645,4.5945318 6.5121645,4.5945318 6.1809448,3.5535556 8.0830923,3.0709212 8.0830923,3.0709212 c 0.037854,0 0.094634,-0.00946 0.1324879,-0.00946 z M 19.439197,18.808589 c 2.176586,-0.946342 3.104002,-2.583514 3.104002,-2.583514 2.034635,-2.772782 1.343805,-5.696979 1.343805,-5.696979 -1.296488,2.8201 -2.479416,3.5961 -2.479416,3.5961 3.189173,-4.8547345 0.01893,-7.7883948 0.01893,-7.7883948 1.296489,2.7633183 -0.425854,6.1322968 -0.425854,6.1322968 -1.447903,3.047221 -3.501465,4.135514 -3.501465,4.135514 2.290147,0.425854 3.974636,-1.116683 3.974636,-1.116683 -3.283807,3.548782 -6.842053,3.378441 -6.842053,3.378441 1.495221,1.675025 3.738051,1.533074 3.738051,1.533074 -2.93366,0.690829 -5.687515,-0.283903 -7.949273,-2.167124 -0.4258537,-0.350146 -0.8327808,-0.728683 -1.2113177,-1.13561 0,0 -0.3406831,-0.35961 -0.4069271,-0.454244 l -0.00946,-0.0095 c -0.047317,1.750733 1.7791228,3.378441 1.7791228,3.378441 -2.2901475,-0.946342 -3.3405871,-2.999904 -3.3405871,-2.999904 0,0 -1.5425375,-2.630831 -0.4258539,-5.630735 1.1072201,-2.9620505 4.409953,-3.6244898 4.495124,-3.6434166 0.01893,0.00946 0.02839,0.018927 0.04732,0.018927 -0.01893,-0.00946 -0.02839,-0.018927 -0.04732,-0.02839 0,0 -0.511024,-0.2176586 -0.80439,-0.3596099 C 10.202899,7.2253627 9.3511906,6.9130698 9.3511906,6.9130698 8.707678,6.7238014 8.1020191,6.6386306 7.5531408,6.6386306 c -2.791709,0 -4.277466,2.1103429 -4.277466,2.1103429 -1.3154154,1.4762935 -1.6277083,3.3879045 -1.6277083,3.3879045 -0.3690734,1.82644 0.02839,3.747514 0.02839,3.747514 0,0 0.037854,0.151415 0.047317,0.217659 0.3028294,0.71922 0.6908297,1.428976 1.1450738,2.100879 2.4604893,3.671807 6.4540526,4.939906 6.4540526,4.939906 5.9146381,2.006245 9.9555191,-0.946342 9.9555191,-0.946342 3.719124,-2.555124 4.466734,-5.507711 4.466734,-5.507711 -3.009368,2.337465 -4.305856,2.119806 -4.305856,2.119806 z M 1.5060152,15.534246 Z M 1.3072834,14.947514 c 0,0 -0.2365855,-0.71922 -0.35960995,-1.816977 v 0.03785 c 0,-0.01893 0,-0.03785 -0.009463,-0.06624 -0.009463,-0.07571 -0.0189268,-0.160878 -0.0283903,-0.236586 0,0 -0.13248788,-1.287025 0.15141475,-2.697075 0,0 0.00946,-0.03785 0.018927,-0.09463 0.037854,-0.1798055 0.075707,-0.3690735 0.1230245,-0.5488785 0,-0.0095 0,-0.01893 0.00946,-0.02839 0.085171,-0.369073 0.2081952,-0.813854 0.3312197,-1.173464 0,0 1.305952,-4.2869294 5.7253693,-6.2458574 0,0 1.5236106,-0.8043907 3.8232216,-0.8611712 0,0 -0.312293,-0.30282945 -0.511025,-0.43531735 C 9.5026054,0.06155355 7.8938239,-0.17503195 6.9190916,0.83755405 6.6257256,1.1403834 6.3796767,1.4716032 6.1052375,1.7744326 5.7929446,2.1151157 5.4144078,2.3990183 4.9790905,2.5598965 4.6005536,2.7018478 4.2220168,2.6734575 3.8340166,2.7397015 3.436553,2.8059454 3.0296259,2.9478967 2.7078696,3.2034091 2.357723,3.4873117 2.2157717,3.8658485 2.1779181,4.3011658 2.1400644,4.6418489 2.1495278,4.9919955 2.130601,5.3326786 2.0832839,6.3358012 1.7615276,6.6197038 1.0423076,7.1780456 0.7394782,7.4051676 0.48396585,7.7079971 0.29469744,8.0297534 c -0.56780521,1.0031221 0.34068313,2.0440986 0.38800023,3.0566846 0.009463,0.208195 -0.009463,0.416391 -0.0851708,0.615122 -0.0757074,0.217659 -0.22712208,0.35961 -0.35014655,0.539415 -0.17034156,0.236586 -0.2839026,0.520489 -0.2365855,0.813855 0.0473171,0.293366 0.19873182,0.567805 0.34068313,0.823317 0.27443918,0.454244 0.61512232,0.861171 0.97473225,1.249172 0.018927,0.01893 0.037854,0.03785 0.056781,0.06624 0,-0.0095 -0.00946,-0.01893 -0.00946,-0.02839 l 0.02839,0.08517 c -0.02839,-0.104098 -0.05678,-0.198732 -0.094634,-0.302829 z M 0.90035634,11.550146 Z m 0.17034156,2.422635 c 0,0.01893 0.00946,0.03785 0.00946,0.04732 0,0.0095 0,0.01893 0.00946,0.03785 -0.00946,-0.02839 -0.00946,-0.05678 -0.018927,-0.08517 z"/>
</svg>

<svg xmlns="http://www.w3.org/2000/svg" viewBox="0 0 24 24"><path fill="#9575cd" d="M7.402 2.342c-2.224.984-3.615 2.584-4.4 3.748-.852 1.268-1.184 2.318-1.184 2.328v.019c-.246.7-.473 1.798-.473 1.807-.265 1.344-.142 2.593-.142 2.612l.029.246a10 10 0 0 1 .132-1.012c.019-.133.37-2.016 1.694-3.511.142-.218 1.675-2.234 4.495-2.234.606 0 1.24.095 1.874.284h.019c.038.01.87.312 1.173.464.284.142.786.36.795.36h.02c2.715 1.324 5.062 1.75 5.081 1.76q1.008.17 1.817.17c1.079 0 1.855-.237 2.262-.69.331-.37.293-.777.293-.777v-.038c.019-.984-.785-2.044-1.467-2.754a11 11 0 0 0-1.542-1.343c-2.044-1.514-4.23-2.281-6.52-2.281-2.347.01-3.937.833-3.956.842m7.419 2.66c.284 0 .511.227.511.51a.51.51 0 0 1-.511.512.51.51 0 0 1-.511-.512c0-.283.227-.51.511-.51m-6.605-1.94c.075 0 .123.018.142.018l3.227 1.004-.123.255-1.543-.483-1.637-.51c-.01 0-.01 0-.02-.01-.009 0-.027-.01-.046-.01-.02 0-.048 0-.067.01-.293.076-1.097.36-1.334.785a.48.48 0 0 0-.038.379c0 .01.17.54.596 1.088l2.14-.104 1.428-.066-.142.293-3.549.17a4.4 4.4 0 0 1-.738-1.286C6.181 3.554 8.083 3.07 8.083 3.07c.038 0 .095-.01.133-.01m11.223 15.747c2.177-.947 3.104-2.584 3.104-2.584 2.035-2.773 1.344-5.697 1.344-5.697-1.296 2.82-2.48 3.596-2.48 3.596 3.19-4.855.02-7.788.02-7.788C22.723 9.099 21 12.468 21 12.468c-1.448 3.047-3.502 4.136-3.502 4.136 2.29.425 3.975-1.117 3.975-1.117-3.284 3.549-6.842 3.378-6.842 3.378 1.495 1.675 3.738 1.533 3.738 1.533-2.934.691-5.688-.283-7.95-2.167-.425-.35-.832-.728-1.21-1.135 0 0-.341-.36-.408-.455l-.01-.009c-.046 1.75 1.78 3.378 1.78 3.378-2.29-.946-3.34-3-3.34-3s-1.543-2.63-.426-5.63c1.107-2.962 4.41-3.625 4.495-3.644.019.01.028.02.047.02-.019-.01-.028-.02-.047-.03 0 0-.511-.217-.805-.359-.293-.142-1.145-.454-1.145-.454a6.4 6.4 0 0 0-1.798-.274c-2.792 0-4.277 2.11-4.277 2.11-1.316 1.476-1.628 3.388-1.628 3.388-.37 1.826.028 3.747.028 3.747s.038.152.048.218c.303.72.69 1.429 1.145 2.1 2.46 3.673 6.454 4.94 6.454 4.94 5.914 2.007 9.955-.946 9.955-.946 3.72-2.555 4.467-5.507 4.467-5.507-3.01 2.337-4.306 2.12-4.306 2.12M1.307 14.948s-.236-.72-.36-1.817v.037c0-.019 0-.037-.009-.066l-.028-.236s-.133-1.287.151-2.698c0 0 .01-.037.02-.094.037-.18.075-.37.122-.549 0-.01 0-.019.01-.028.085-.37.208-.814.33-1.174 0 0 1.307-4.287 5.726-6.246 0 0 1.524-.804 3.823-.86 0 0-.312-.304-.51-.436-1.08-.72-2.688-.956-3.663.057-.293.302-.54.634-.814.936-.312.341-.69.625-1.126.786-.378.142-.757.113-1.145.18-.397.066-.804.208-1.126.463-.35.284-.492.663-.53 1.098-.038.34-.028.691-.047 1.032-.048 1.003-.37 1.287-1.089 1.845-.303.227-.558.53-.747.852-.568 1.003.34 2.044.388 3.056.01.209-.01.417-.085.616-.076.217-.228.36-.35.539-.171.237-.285.52-.237.814s.199.568.34.823c.275.454.616.861.975 1.25a.3.3 0 0 1 .057.066c0-.01-.01-.02-.01-.029l.029.085a4 4 0 0 0-.095-.302m-.237-.975c0 .019.01.038.01.047s0 .019.01.038c-.01-.028-.01-.057-.02-.085" data-iconColor="NgRx Effects Files"/></svg>
